X:686
T:Shetland Fiddler, The
D:Altan
Z:Nigel Gatherer
S:Nigel Gatherer <gatherer@argonet.co.uk> scots-music 2005-11-27
M:4/4
L:1/8
K:D
Ac | d2 fd Adfe | defg afdf | e2   ge   Beed   | cdef gece |
     d2 fd Adfe | defg afde |(3fga fd (3fga fd | Bgec d2  :|
cd | eAfA  gAaA | faaf gfed | A2   BA   cAdA   | efed cABc |
     dAeA  fAgA | faaf gefd |(3fga fd (3fga fd | Bgec d2  ||
